!!!COM: Beethoven, Ludwig van
!!!CDT: 1770///-1827///
!!!OTL: Piano Sonata no. 3 in C major
!!!ODT: 1794///-1795///
!!!ODE: Joseph Haydn
!!!OMD: Scherzo: Allegro
!!!OPS: 2
!!!ONM: 3
!!!OMV: 3
**kern	**kern	**dynam
*staff2	*staff1	*staff1/2
*Ipiano	*Ipiano	*Ipiano
*>[A,A,B,B1,B,B2,C,C1,C,C2,D,A,B,B2,E]	*>[A,A,B,B1,B,B2,C,C1,C,C2,D,A,B,B2,E]	*>[A,A,B,B1,B,B2,C,C1,C,C2,D,A,B,B2,E]
*>norep[A,B,B2,C,C2,D,A,B,B2,E]	*>norep[A,B,B2,C,C2,D,A,B,B2,E]	*>norep[A,B,B2,C,C2,D,A,B,B2,E]
*>A	*>A	*>A
*clefF4	*clefG2	*clefG2
*k[]	*k[]	*k[]
*C:	*C:	*C:
*M3/4	*M3/4	*M3/4
*MM244	*MM244	*MM244
8r	(8ggL	p
4r	8ff#	.
.	8ggJ)	.
=1	=1	=1
2.r	4aa'	.
.	4gg'	.
.	4ffn'	.
=2	=2	=2
*	*^	*
2.r	4ee'	4r	.
.	4dd'	8r	.
!	!	!LO:TX:b:i:t=m.g.	!
.	.	(>8eL	.
.	4cc'	8d	.
.	.	8eJ)	.
=3	=3	=3	=3
2.r	2.b	4f'	.
.	.	4d'	.
.	.	4g'	.
=4	=4	=4	=4
4r	2.cc	4e'	.
8r	.	4d'	.
(8GL	.	.	.
8F#	.	4c'	.
8GJ)	.	.	.
*	*v	*v	*
=5	=5	=5
4A'	2.g 2.b 2.dd	.
4G'	.	.
4Fn'	.	.
=6	=6	=6
4E'	2.g 2.cc 2.ee	.
4D'	.	.
4C'\	.	.
=7	=7	=7
4BB'	4g' 4dd' 4gg'	.
4GG'	4g' 4b' 4ff'	.
4C'	4g' 4cc' 4ee'	.
=8	=8	=8
4GG	4g 4b 4dd	.
*clefG2	*	*
8r	4r	p
(8ddL	.	.
8cc#	4r	.
8ddJ)	.	.
=9	=9	=9
4ee-'	4r	.
4dd'	8r	.
.	(8ff#L	.
4cc'	8eeni	.
.	8ff#J)	.
=10	=10	=10
4b-'/	4gg'	.
4a'	8r	.
.	(8ggL	<
4g'	8ff#	.
.	8ggJ)	.
=11	=11	=11
4e-' 4f#'	4aa'	.
4d'	8r	.
.	(8aaL	.
4c'	8gg	.
.	8aaJ)	.
*clefF4	*	*
=12	=12	=12
4B-'	4bb-'	.
4A'	8r	.
.	(8bb-L	.
4G'	8aa	.
.	8bb-J)	.
=13	=13	=13
4BB-' 4B-'	4ccc#'	f
4AA' 4A'	8r	.
.	(8ccc#L	.
4GG'\ 4G'\	8bb#	.
.	8ccc#J)	.
=14	=14	=14
4FF#' 4F#'	4ddd'	.
4EE' 4E'	8r	.
.	(8dddL	.
4DD' 4D'	8ccc#	.
.	8dddJ)	.
=15	=15	=15
4GG' 4G'	4dd' 4gg' 4bbn'	.
4CC' 4C'	4ee' 4aa' 4ccc'	.
4DD' 4D'	4cc' 4ff#' 4aa'	.
=16	=16	=16
4GGG 4GG	4b 4dd 4gg	.
8r	8r	.
=:|!|:	=:|!|:	=:|!|:
*>B	*>B	*>B
(>8g>L	8rff	.
8f#>	4rff	.
8g>J)	.	.
=17	=17	=17
4a->'<	4rff	.
4g>'<	8rff	.
.	(>8bL	.
4fn>'<	8an	.
.	8bJ)	.
=18	=18	=18
4e->'<	4cc	.
4d>'<	8rff	.
.	(>8ccL	.
4c>'<	8b	.
.	8ccJ)	.
=19	=19	=19
4g->'<	4a	.
4f>'<	8rff	.
.	(>8aL	.
4e->'<	8gn	.
.	8aJ)	.
=20	=20	=20
4d-'	4b-/	.
4c'	8r	.
.	(8b-L	.
4B-'	8a	.
.	8b-J)	.
=21	=21	=21
4A'	4gg-'	.
8r	4ff'	.
(8AL	.	.
8G	4ee-'	.
8AJ)	.	.
=22	=22	=22
4B-'	4dd-'	.
8r	4cc'	.
(8d-L	.	.
8c	4b-'	.
8d-J)	.	.
=23	=23	=23
4G'	4ff' 4fff'	.
8r	4ee-' 4eee-'	.
(8GL	.	.
8F	4dd-' 4ddd-'	.
8GJ)	.	.
=24	=24	=24
4A-'	4cc' 4ccc'	.
8r	4b-' 4bb-'	.
(8cL	.	.
8Bn	4a-' 4aa-'	.
8cJ)	.	.
=25	=25	=25
4F#'	4ee-' 4eee-'	.
8r	4dd' 4ddd'	.
(8F#L	.	.
8En	4cc' 4ccc'	.
8F#J)	.	.
=26	=26	=26
4G'	4bn' 4bbn'	.
8r	4an' 4aan'	.
(8GL	.	.
8F#	4g' 4gg'	.
8GJ)	.	.
=27	=27	=27
4E-'	4e-' 4ee-'	f
4D'	4d' 4dd'	.
4C'\	4c' 4cc'	.
=28	=28	=28
*^	*	*
4r	4GG	4G< 4g	.
8r	8r	4r	.
!	!	!	!LO:DY:rj
(8GL	(8GGL	.	p
8F#	8FF#	4r	.
8GJ)	8GGJ)	.	.
=29	=29	=29	=29
(4A-	(4AA-	4.r	.
8G)	8GG)	.	.
8r	4.ryy	8r	.
4G' 4B' 4d'	.	4b' 4dd' 4gg'	sf
=30	=30	=30	=30
4G 4c (4e-	4.ryy	4a 4cc 4ee- (4ff#	.
8G 8B 8d)	.	8b 8dd 8gg)	p
(8GL	(8GGL	4.ryy	.
8F#	8FF#	.	.
8GJ)	8GGJ)	.	.
=31	=31	=31	=31
(4A-	(4AA-	4.ryy	.
8G)	8GG)	.	.
8r	4.r	8r	.
4G' 4B' 4d'	.	4b' 4dd' 4gg'	.
=32	=32	=32	=32
4G 4c (4e-	4.ryy	4cc 4ee- 4ff# (4aan	.
8G 8B 8d)	.	8b 8dd 8gg)	p
(8GL	(8GGL	4.r	.
8F#	8FF#	.	.
8GJ)	8GGJ)	.	.
=33	=33	=33	=33
(4A-	4AA-	4.ryy	.
8G)	8GG	.	.
8r	4.ryy	8r	.
!	!	!	!LO:DY:rj
4G' 4B' 4d'	.	4b' 4dd' 4gg'	sf
*v	*v	*	*
=34	=34	=34
4G 4c (4e-	4cc 4ee- (4aa-	.
8G 8B 8d)	8b 8dd 8gg)	.
8r	8r	.
!	!	!LO:DY:rj
4G' 4B' 4d'	4b' 4dd' 4gg'	sf
=35	=35	=35
[4G 4c (4e-	4cc 4ee- (4aa-	.
8G] 8B 8d)	8b 8dd 8gg)	.
8r	8r	.
!	!	!LO:DY:rj
4G' 4B' 4d'	4b' 4dd' 4gg'	sf
=36	=36	=36
4G 4c (4e-	4cc 4ee- (4aa-	.
8G 8B 8d)	8b 8dd 8gg)	.
8r	(8ggL	.
4r	8ff#	.
.	8ggJ)	.
=37	=37	=37
2.r	(4aa-	.
.	8gg)	.
.	(8ggL	.
.	8ff#	.
.	8ggJ)	.
=38	=38	=38
2.r	(4aa-	.
.	8gg)	.
.	(8ggL	pp
.	8ff#	.
.	8ggJ)	.
=39	=39	=39
2.r	(4aa-	.
.	8gg)	.
.	(8ggL	.
.	8ff#	.
.	8ggJ)	.
=40	=40	=40
2.r	4aan'	.
.	4gg'	.
.	4ffn'	.
=41	=41	=41
*	*^	*
2.ryy	4ee'	4r	.
.	4dd'	8r	p
.	.	(8eL	.
.	4cc'	8d	.
.	.	8eJ)	.
=42	=42	=42	=42
2.ryy	2.b	4f'	.
.	.	4d'	.
.	.	4g'	.
=43	=43	=43	=43
4r	2.cc	4e'	.
8r	.	4d'	.
(8EL	.	.	.
8D	.	4c'	.
8EJ)	.	.	.
*	*v	*v	*
=44	=44	=44
4F'	2.g 2.b 2.dd	.
4D'	.	.
4G'	.	.
=45	=45	=45
4E'	2.g 2.cc [2.ee	.
4D'	.	.
4C'\	.	.
=46	=46	=46
*	*^	*
4FF	4cc#' 4ee']	2a	.
4r	4dd 4ff	.	.
4GG'	4b' 4dd'	4f	.
=47	=47	=47	=47
4CC' 4C'	4cc'	4e	p
*clefG2	*	*	*
8r	4r	4r	.
(8ccL	.	.	.
8b	4r	4r	.
8ccJ)	.	.	.
*	*v	*v	*
=48	=48	=48
4dd-'	4r	.
4cc'	8r	.
.	(8eeL	.
4b-'	8ddni	.
.	8eeJ)	.
=49	=49	=49
4a-'	4ff'	.
4g'	8r	.
.	(8ffL	.
4f'	8ee	.
.	8ffJ)	.
=50	=50	=50
4a-'	4bb'	.
4g'	8r	.
.	(8bbL	.
4f'	8aa	.
.	8bbJ)	.
=51	=51	=51
4e-'	4ccc'	.
4d'	8r	.
.	(8cccL	.
4c'	8bb	.
.	8cccJ)	.
=52	=52	=52
4e-'	4ff#'	.
4d'	8r	.
.	(8ff#L	.
4c'	8ee#	.
.	8ff#J)	.
*clefF4	*	*
=53	=53	=53
4B'	4gg'	.
4A'	8r	.
.	(8ggL	.
4G'	8ff#	.
.	8ggJ)	.
=54	=54	=54
4c'	4g' 4cc' 4ee'	.
4F'	4a' 4dd' 4ffn'	.
4G'	4f'\ 4b'\ 4dd'\	.
=55	=55	=55
4C	4e 4cc	.
8r	8r	.
(8CL	(8cL	.
8BB	8B	.
8CJ)	8cJ)	.
=56	=56	=56
(4D-	(4d-	fz
8C)	8c)	.
8r	8r	.
*clefG2	*	*
4c' 4e' 4g'	4cc' 4ee'	sf
=57	=57	=57
[4c 4f 4a-	4b 4dd (4ff	.
8c] 8e 8g	8cc 8ee)	.
*clefF4	*	*
(8CL	(8cL	.
8BB	8B	.
8CJ)	8cJ)	.
=58	=58	=58
(4D-/	(4d-	fz
8C)	8c)	.
8r	8r	.
*clefG2	*	*
!	!	!LO:DY:rj
4c' 4e' 4g'	4ee' 4gg' 4ccc'	sf
=59	=59	=59
[4c 4f (>4a-	4ff 4aa- (4bb	.
8c] 8e 8g)	8ee 8gg 8ccc)	.
*clefF4	*	*
(8CL	(8cL	.
8BB	8B	.
8CJ)	8cJ)	.
=60	=60	=60
(4D-/	(4d-	fz
8C)	8c)	.
8r	8r	.
*clefG2	*	*
4c' 4e' 4g'	4ccc' 4eee'	sf
=61	=61	=61
[4c 4f 4a-	4bb 4ddd (4fff	.
4c] 4e 4g	4ccc 4eee)	.
4c' 4e' 4g'	4ccc' 4eee'	sf
=62	=62	=62
[4c 4f (>4a-	4bb 4ddd (4fff	.
4c] 4e 4g)	4ccc 4eee)	.
4c' 4e' 4g'	4ccc' 4eee'	sf
=63	=63	=63
[4c 4f (>4a-	4bb 4ddd (4fff	.
4c] 4e 4g)	4ccc 4eee)	.
*clefF4	*	*
4C' 4c'	4cc' 4ccc'	ff
=64	=64	=64
*>B1	*>B1	*>B1
4CC 4C	4c 4cc	.
8r	8r	.
=65:|!	=65:|!	=65:|!
*>B2	*>B2	*>B2
4CC 4C	4c 4cc	.
4r	4r	.
4r	4r	.
=66|!	=66|!	=66|!
*>C	*>C	*>C
*^	*	*
!!LO:TX:i:a:t=TRIO
(12EL	2.AAA 2.AA	4ryy	.
12A	.	.	.
12cJ)	.	.	.
4ryy	.	(>12eL	.
.	.	12a	.
.	.	12ccJ)	.
4ryy	.	(>12eeL>	.
.	.	12cc	.
.	.	12aJ)	.
=67	=67	=67	=67
*Xtuplet	*	*Xtuplet	*
4ryy	2.BBB 2.BB	12eeL>	.
.	.	12b	.
.	.	12g#J	.
12eL	.	4ryy	.
12B	.	.	.
12G#J	.	.	.
12EL	.	4ryy	.
12G#	.	.	.
12BJ	.	.	.
=68	=68	=68	=68
12EL	2.CC 2.C	4ryy	.
12A	.	.	.
12cJ	.	.	.
4ryy	.	12eL	.
.	.	12a	.
.	.	12ccJ	.
4ryy	.	12eeL>	.
.	.	12cc	.
.	.	12aJ	.
=69	=69	=69	=69
4ryy	2.DD 2.D	12eeL>	.
.	.	12b	.
.	.	12g#J	.
12e>L>	.	4ryy	.
12B	.	.	.
12G#J	.	.	.
12EL	.	4ryy	.
12G#	.	.	.
12BJ	.	.	.
=70	=70	=70	=70
12EL	2.CC 2.C	4ryy	.
12A	.	.	.
12cJ	.	.	.
4ryy	.	12eL	.
.	.	12a	.
.	.	12ccJ	.
4ryy	.	12eeL>	.
.	.	12cc	.
.	.	12aJ	.
=71	=71	=71	=71
4ryy	2.BBB 2.BB	12eeL>	.
.	.	12b	.
.	.	12gnJ	.
12e>L>	.	4ryy	.
12B	.	.	.
12GnJ	.	.	.
12EL	.	4ryy	.
12G	.	.	.
12BJ	.	.	.
=72	=72	=72	=72
12e>L>	4AAA# 4AA#	2.ryy	.
12c#	.	.	.
12GJ	.	.	.
12e>L>	4BBB 4BB	.	.
12B	.	.	.
12GJ	.	.	.
12d#>L>	4BBB 4BB	.	.
12B	.	.	.
12F#J	.	.	.
*v	*v	*	*
=73	=73	=73
*>C1	*>C1	*>C1
*^	*	*
4G 4B	4EE	4e	.
4r	4E	4ryy	.
4E	4r	4ryy	.
*v	*v	*	*
=74:|!	=74:|!	=74:|!
*>C2	*>C2	*>C2
*^	*	*
4G 4B	4EE	4e	.
4r	4E	4ryy	.
4G	4r	4ryy	.
*v	*v	*	*
=75	=75	=75
*>D	*>D	*>D
2.CC 2.C	12G<L	.
.	12c	<
.	12eJ	.
.	12gL	.
.	12cc	.
.	12eeJ	[
.	12gg'L	sf
.	12ee	.
.	12ccJ	.
=76	=76	=76
2.DD 2.D	12gg'L	sf
.	12dd	.
.	12bJ	.
.	12gL	.
.	12d	.
.	12BJ	.
.	12GL	.
.	12B	.
.	12dJ	.
=77	=77	=77
4EE 4E	12gL	.
.	12c#	.
.	12B-J	.
4DD 4D	12gL	.
.	12d	.
.	12B-J	.
4CC# 4C#	12gL	.
.	12e	.
.	12AJ	.
=78	=78	=78
4DD 4D	12gL	.
.	12e	.
.	12AJ	.
4r	12fL	.
.	12d	.
.	12AJ	.
4r	12fL	.
.	12d	.
.	12AJ	.
=79	=79	=79
2.DD 2.D	12AL	<
.	12d	.
.	12fJ	.
.	12aL	.
.	12dd	.
.	12ffJ	[
.	12aa'L	sf
.	12ff	.
.	12ddJ	.
=80	=80	=80
2.EE 2.E	12aa'L	sf
.	12ee	.
.	12ccJ	.
.	12aL	.
.	12e	.
.	12cJ	.
.	12AL	.
.	12c	.
.	12eJ	.
=81	=81	=81
4FF# 4F#	12aL	.
.	12d#	.
.	12BJ	.
4EE 4E	12aL	.
.	12e	.
.	12BJ	.
4CC# 4D#	12aL	.
.	12f#	.
.	12BJ	.
=82	=82	=82
4EE 4E	12aL	.
.	12e	.
.	12BJ	.
4r	12g#L	.
.	12e	.
.	12BJ	.
4r	12g#L	.
.	12e	.
.	12BJ	.
=83	=83	=83
2.AA 2.A	12eL<	.
.	12a	.
.	12ccJ	.
.	12eeL	.
.	12aa	.
.	12cccJ	.
.	12eee'L	sf
.	12ccc	.
.	12aaJ	.
=84	=84	=84
2.BB 2.B	12eee'L	sf
.	12bb	.
.	12gg#J	.
.	12eeL	.
.	12b	.
.	12g#J	.
.	12eL<	.
.	12g#	.
.	12bJ	.
=85	=85	=85
2.C 2.c	12eL<	.
.	12a	.
.	12ccJ	.
.	12eeL	.
.	12aa	.
.	12cccJ	.
.	12eee'L	sf
.	12ccc	.
.	12aaJ	.
=86	=86	=86
2.D 2.d	12eee'L	sf
.	12bb	.
.	12gg#J	.
.	12eeL	.
.	12b	.
.	12g#J	.
.	12eL<	.
.	12g#	.
.	12bJ	.
=87	=87	=87
2.C 2.c	12eL<	.
.	12a	.
.	12ccJ	.
.	12eeL	.
.	12aa	.
.	12cccJ	.
.	12eeeL	.
.	12ccc	.
.	12aaJ	.
=88	=88	=88
2.D 2.d	12eeeL	.
.	12ccc	.
.	12ffJ	.
.	12dddL	.
.	12bb	.
.	12ffJ	.
.	12dddL	.
.	12bb	.
.	12ffJ	.
=89	=89	=89
4E 4e	12dddL	.
.	12bb	.
.	12eeJ	.
4r	12cccL	.
.	12aa	.
.	12eeJ	.
4EE 4E	12bbL	.
.	12gg#	.
.	12ddJ	.
=90	=90	=90
*^	*	*
4AA	4ryy	4cc 4aa	.
4ryy	4A	4r	.
4G	4r	4ryy	.
*v	*v	*	*
=91	=91	=91
2.CC 2.C	12G<L	<
.	12c	.
.	12eJ	.
.	12gL	.
.	12cc	.
.	12eeJ	[
.	12gg'L	sf
.	12ee	.
.	12ccJ	.
=92	=92	=92
2.DD 2.D	12gg'L	sf
.	12dd	.
.	12bJ	.
.	12gL	.
.	12d	.
.	12BJ	.
.	12GL	.
.	12B	.
.	12dJ	.
=93	=93	=93
4EE 4E	12gL	.
.	12c#	.
.	12B-J	.
4DD 4D	12gL	.
.	12d	.
.	12B-J	.
4CC# 4C#	12gL	.
.	12e	.
.	12AJ	.
=94	=94	=94
4DD 4D	12gL	.
.	12e	.
.	12AJ	.
4r	12fL	.
.	12d	.
.	12AJ	.
4r	12fL	.
.	12d	.
.	12AJ	.
=95	=95	=95
2.DD 2.D	12AL	<
.	12d	.
.	12fJ	.
.	12aL	.
.	12dd	.
.	12ffJ	[
.	12aa'L	sf
.	12ff	.
.	12ddJ	.
=96	=96	=96
2.EE 2.E	12aa'L	sf
.	12ee	.
.	12ccJ	.
.	12aL	.
.	12e	.
.	12cJ	.
.	12AL	.
.	12c	.
.	12eJ	.
=97	=97	=97
4FF# 4F#	12aL	.
.	12d#	.
.	12BJ	.
4EE 4E	12aL	.
.	12e	.
.	12BJ	.
4DD# 4D#	12aL	.
.	12f#	.
.	12BJ	.
=98	=98	=98
4EE 4E	12aL	.
.	12e	.
.	12BJ	.
4r	12g#L	.
.	12e	.
.	12BJ	.
4r	12g#L	.
.	12e	.
.	12BJ	.
=99	=99	=99
2.AA 2.A	12eL	.
.	12a	.
.	12ccJ	.
.	12eeL	.
.	12aa	.
.	12cccJ	.
.	12eee'L	sf
.	12ccc	.
.	12aaJ	.
=100	=100	=100
2.BB 2.B	12eee'L	sf
.	12bb	.
.	12gg#J	.
.	12eeL	.
.	12b	.
.	12g#J	.
.	12eL<	.
.	12g#	.
.	12bJ	.
=101	=101	=101
2.C 2.c	12eL<	.
.	12a	.
.	12ccJ	.
.	12eeL	.
.	12aa	.
.	12cccJ	.
.	12eeeL	.
.	12ccc	.
.	12aaJ	.
=102	=102	=102
2.D 2.F 2.A 2.d	12fffL	.
.	12ddd	.
.	12aaJ	.
.	12ffL	.
.	12dd	.
.	12aJ	.
.	12fL<	.
.	12a	.
.	12ddJ	.
=103	=103	=103
2.C 2.F 2.A- 2.c	12fL<	.
.	12a-	.
.	12ddJ	.
.	12ffL	.
.	12aa-	.
.	12dddJ	.
.	12fffL	.
.	12ddd	.
.	12aa-J	.
=104	=104	=104
4BB 4D 4F 4G 4B	12fffL	ff
.	12ddd	.
.	12bbJ	.
4r	12ggL	.
.	12ff	.
.	12ddJ	.
4r	12bL	.
.	12g	.
.	12fJ	.
=105	=105	=105
*^	*	*
12dL	4r	2.ryy	.
12B	.	.	.
12GJ	.	.	.
12FL	4r	.	.
12D	.	.	.
12BBJ	.	.	.
12GG	12r	.	.
12r	12DDL	.	.
12r	12BBBJ	.	.
*v	*v	*	*
=106	=106	=106
4GGG	2.ryy	.
4r	.	.
4r	.	.
=107	=107	=107
4r	4r	.
8r	8r	.
!!LO:TX:b:i:rj:t=Scherzo D.C.
!!LO:TX:b:i:rj:t=e poi la Coda
=108||	=108||	=108||
*>E	*>E	*>E
!!LO:TX:i:a:t=CODA
4r	4r	.
4r	4r	.
4AA 4A	4a 4aa	ff
=109	=109	=109
4AAA 4AA	4A 4a	.
4r	4r	.
4r	4r	.
=110	=110	=110
4r	4r	.
4r	4r	.
4FF# 4F#	4f# 4ff#	ff
=111	=111	=111
4FFF# 4FF#	4f# 4F#<	.
4rCC	4r	.
4FFF# 4FF#	4f# 4F#<	.
=112	=112	=112
4GGG 4GG	4g 4G<	.
8r	4r	.
!	!	!LO:DY:b:rj
(8GGL	.	p
8FF#	4r	.
8GGJ)	.	.
=113	=113	=113
(4AA-^	2.d 2.f 2.b	p
4GG)	.	.
4GG'	.	.
=114	=114	=114
(4AA-^	2.c 2.e 2.cc	.
4GG)	.	.
4GG'	.	.
=115	=115	=115
(4AA-	2.c 2.e- 2.f#	.
4GG)	.	.
4GG'	.	.
=116	=116	=116
(4AA-	2.B 2.d 2.g	.
4GG)	.	.
4GG'	.	.
=117	=117	=117
(4AA-	[2.G 2.c 2.e	.
4GG)	.	.
4GG'	.	.
=118	=118	=118
(4AA-	2.G] 2.d 2.f	.
4GG)	.	.
4GG'	.	.
=119	=119	=119
(4AA-	2.F 2.B 2.d	.
4GG)	.	.
4GG'	.	.
=120	=120	=120
4CC	2.c 2.E< 2.G<	.
8rCC	.	.
!	!	!LO:DY:rj
(8CCL>	.	pp
8BBB	.	.
8CCJ)	.	.
=121	=121	=121
(4DD-	2.B 2.f	pp
4CC)	.	.
4CC'	.	.
=122	=122	=122
(4DD-	2.c 2.e	.
4CC)	.	.
4CC'	.	.
=123	=123	=123
(4DD-	2.f 2.b	.
4CC)	.	.
4CC'	.	.
=124	=124	=124
(4DD-	2.e 2.cc	.
4CC)	.	.
4CC'	.	.
=125	=125	=125
(4DD-	2.b 2.ff	.
4CC)	.	.
4CC'	.	.
=126	=126	=126
(4DD-	2.cc 2.ee	.
4CC)	.	.
4CC'	.	.
=127	=127	=127
(4DD-	2.ff 2.bb	.
4CC)	.	.
4CC'	.	.
=128	=128	=128
4CC'	4ee 4ccc	.
4r	4r	.
*	*clefF4	*clefF4
(4BBB	(4BB	pp
=129	=129	=129
4CC)	4C)	.
4r	4r	.
(4BBB	(4BB	.
=130	=130	=130
4CC)	4C)	.
8r;	8r;	.
==	==	==
*-	*-	*-
!!!RDF**kern: > = above
!!!RDF**kern: < = below
!!!RDF**kern: i = editorial accidental
!!!verovio: beamFrenchStyle 1
!!!LOR: Durand 1915, plates 9327/9328, Paul Dukas, ed.
!!!URL-vhv: https://verovio.humdrum.org/?file=beethoven/sonatas/sonata03-3.krn
!!!URL-pdf: https://github.com/craigsapp/beethoven-piano-sonatas/blob/master/reference-edition/sonata03-3.pdf
!!!ENC: Craig Stuart Sapp
!!!END: 2008/01/25
!!!EED: Craig Stuart Sapp
!!!EEV: 2019/08/19
